packages/icons/general/Document.svg

<svg width="42" height="48" viewBox="0 0 42 48" xmlns="http://www.w3.org/2000/svg">
<g>
        <path
            opacity="0.5"
            d="M8.08789 12.9375C8.08789 9.62379 10.4003 6.9375 13.2528 6.9375H28.7477C31.6002 6.9375 33.9126 9.62379 33.9126 12.9375V36.9375C33.9126 40.2512 31.6002 42.9375 28.7477 42.9375H13.2528C10.4003 42.9375 8.08789 40.2512 8.08789 36.9375V12.9375Z"
            fill="#AFC3E1"
        />
        <path
            opacity="0.1"
            d="M33.9123 20.3906V12.9375C33.9123 9.62379 31.5999 6.9375 28.7474 6.9375H22.3315L33.9123 20.3906Z"
            fill="#AFC3E1"
        />
        <path
            d="M22.3318 6.9375L22.3318 14.3906C22.3318 17.7043 24.6442 20.3906 27.4968 20.3906L33.9126 20.3906L22.3318 6.9375Z"
            fill="#AFC3E1"
        />
    </g>
</svg>

<svg xmlns="http://www.w3.org/2000/svg" width="42" height="48">
    <g fill="#AFC3E1">
        <path d="M8.088 12.938c0-3.314 2.312-6 5.165-6h15.495c2.852 0 5.165 2.686 5.165 6v24c0 3.313-2.313 6-5.165 6H13.253c-2.853 0-5.165-2.687-5.165-6v-24Z" opacity=".5"/>
        <path d="M33.912 20.39v-7.453c0-3.313-2.312-6-5.165-6h-6.416l11.581 13.454Z" opacity=".1"/>
        <path d="M22.332 6.938v7.453c0 3.313 2.312 6 5.165 6h6.416L22.332 6.938Z"/>
    </g>
</svg>
